public/assets/wallet2.svg

<svg width="25" height="25" viewBox="0 0 25 25" fill="none" xmlns="http://www.w3.org/2000/svg">
<path d="M13.8693 9.33984H7.86926M22.8693 11.3098V13.3698C22.8693 13.9198 22.4293 14.3698 21.8693 14.3898H19.9093C18.8293 14.3898 17.8393 13.5998 17.7493 12.5198C17.6893 11.8898 17.9293 11.2998 18.3493 10.8898C18.7193 10.5098 19.2293 10.2898 19.7893 10.2898H21.8693C22.4293 10.3098 22.8693 10.7598 22.8693 11.3098Z" stroke="white" stroke-width="1.5" stroke-linecap="round" stroke-linejoin="round"/>
<path d="M18.3493 10.8898C17.9293 11.2998 17.6893 11.8898 17.7493 12.5198C17.8393 13.5998 18.8293 14.3898 19.9093 14.3898H21.8693V15.8398C21.8693 18.8398 19.8693 20.8398 16.8693 20.8398H7.86926C4.86926 20.8398 2.86926 18.8398 2.86926 15.8398V8.83984C2.86926 6.11984 4.50926 4.21984 7.05926 3.89984C7.31926 3.85984 7.58926 3.83984 7.86926 3.83984H16.8693C17.1293 3.83984 17.3793 3.84984 17.6193 3.88984C20.1993 4.18984 21.8693 6.09984 21.8693 8.83984V10.2898H19.7893C19.2293 10.2898 18.7193 10.5098 18.3493 10.8898Z" stroke="white" stroke-width="1.5" stroke-linecap="round" stroke-linejoin="round"/>
</svg>

<svg xmlns="http://www.w3.org/2000/svg" width="25" height="25" fill="none"><path stroke="#fff" stroke-linecap="round" stroke-linejoin="round" stroke-width="1.5" d="M13.87 9.34h-6m15 1.97v2.06c0 .55-.44 1-1 1.02h-1.96c-1.08 0-2.07-.79-2.16-1.87-.06-.63.18-1.22.6-1.63.37-.38.88-.6 1.44-.6h2.08c.56.02 1 .47 1 1.02Z"/><path stroke="#fff" stroke-linecap="round" stroke-linejoin="round" stroke-width="1.5" d="M18.35 10.89c-.42.41-.66 1-.6 1.63.09 1.08 1.08 1.87 2.16 1.87h1.96v1.45c0 3-2 5-5 5h-9c-3 0-5-2-5-5v-7c0-2.72 1.64-4.62 4.19-4.94.26-.04.53-.06.81-.06h9c.26 0 .51.01.75.05 2.58.3 4.25 2.21 4.25 4.95v1.45h-2.08c-.56 0-1.07.22-1.44.6Z"/></svg>
